assets/images/tools/uizard.svg

<svg fill="none" height="32" viewBox="0 0 216 32" width="216" xmlns="http://www.w3.org/2000/svg"><path clip-rule="evenodd" d="m12.8342 32h6.4172c7.088 0 12.8342-5.7309 12.8342-12.8v-6.4c0-7.06912-5.7462-12.8-12.8342-12.8h-6.4172c-7.08799 0-12.8342 5.73088-12.8342 12.8v6.4c0 7.0691 5.74621 12.8 12.8342 12.8zm9.1771-21.1199c-.1293 0-.2622.0141-.3966.0438-.6366.1408-1.1506.6535-1.2918 1.2887-.3077 1.3837 1.0486 2.5715 2.4578 1.9574.3542-.1542.6423-.4416.7967-.7945.556-1.2692-.3613-2.4954-1.5661-2.4954zm-10.7808.2557h-2.56684c-.17743 0-.32086.1436-.32086.32v4.7107c0 4.1427 3.4258 7.5136 7.6364 7.5136 4.0986 0 7.4538-3.1939 7.6293-7.185.0077-.1798-.1418-.3286-.3225-.3286h-2.5614c-.1687 0-.316.1267-.3279.2947-.1559 2.2416-2.0778 4.0189-4.4175 4.0189-2.4417 0-4.4278-1.935-4.4278-4.3136v-4.7107c0-.1764-.1438-.32-.3209-.32zm86.0742-.8857c.2018-.0487.3962.104.3962.311v14.3997c0 .177-.1437.32-.3208.32h-3.369c-.1771 0-.3209-.143-.3209-.32v-13.5888c0-.1478.1014-.2762.2455-.311zm22.3003-8.32063c.202-.04768.396.10496.396.31168v22.71965c0 .1767-.144.32-.321.32h-2.179c-.094 0-.183-.0406-.244-.1113l-.762-.8858c-1.248.8314-2.746 1.3171-4.355 1.3171-4.626 0-8.33-4.0038-7.813-8.7184.387-3.5331 3.19-6.408 6.721-6.88733 1.804-.2448 3.511.12893 4.942.93443v-7.89027c0-.14816.102-.27712.246-.31104zm-3.647 16.33243c.32-2.5081-1.805-4.6275-4.32-4.3091-1.714.217-3.099 1.5975-3.317 3.3072-.32 2.5082 1.805 4.6275 4.32 4.3091 1.714-.2169 3.099-1.5974 3.317-3.3072zm-14.407-8.34104c1.285 0 2.326 1.03874 2.326 2.32004 0 1.2812-1.041 2.32-2.326 2.32s-2.326-1.0388-2.326-2.32c0-1.2813 1.041-2.32004 2.326-2.32004zm-42.5133.32004c.1772 0 .3209.1433.3209.32v14.4c0 .1769-.1437.32-.3209.32h-3.3689c-.1772 0-.3209-.1431-.3209-.32v-14.4c0-.1767.1437-.32.3209-.32zm-1.6845-8.32004c1.2848 0 2.3263 1.03872 2.3263 2.32s-1.0415 2.32-2.3263 2.32c-1.2847 0-2.3262-1.03872-2.3262-2.32s1.0415-2.32 2.3262-2.32zm17.3263 8.32004c.1771 0 .3208.1433.3208.32v3.0601c0 .089-.0375.1744-.1033.2349l-8.2389 7.585h7.1291c.1472 0 .2756.1001.3112.2425l.8021 3.2c.0507.2019-.1023.3975-.3112.3975h-1.4243-11.6406c-.1771 0-.3209-.1431-.3209-.32v-3.0599c0-.0893.0376-.1744.1033-.2352l7.9181-7.5849h-6.8082c-.1473 0-.2756-.0999-.3113-.2423l-.8021-3.2c-.0507-.2019.1024-.3977.3112-.3977h1.9248zm16.6893.0092c.2021-.0486.3963.104.3963.3111v14.3997c0 .1769-.1438.32-.3209.32h-2.1773c-.0944 0-.1842-.0413-.2452-.1133l-.7533-.8896c-1.2495.8349-2.7507 1.3229-4.3643 1.3229-4.3348 0-7.861-3.5172-7.861-7.84 0-4.3229 3.5262-7.84004 7.861-7.84004 1.4952 0 2.8944.41884 4.0854 1.14464.002-.0005.0038-.0014.0055-.0024l.0023-.0011.0025-.001zm-7.4647 11.3508c2.1231 0 3.8502-1.7226 3.8502-3.84 0-2.1175-1.7271-3.84-3.8502-3.84s-3.8503 1.7225-3.8503 3.84c0 2.1174 1.7272 3.84 3.8503 3.84zm-30.8022-11.36c.1771 0 .3209.1433.3209.32v6.88c0 4.4995-3.7066 8.16-8.2621 8.16s-8.262-3.6605-8.262-8.16v-6.88c0-.1767.1437-.32.3208-.32h3.369c.1771 0 .3209.1433.3209.32v6.88c0 2.2937 1.9071 4.16 4.2513 4.16s4.2514-1.8663 4.2514-4.16v-6.88c0-.1767.1437-.32.3208-.32zm99.8311-.1918c-.56-.56925-.56-1.51185 0-2.06181.56-.56964 1.488-.56964 2.048 0 .56.54996.56 1.49256 0 2.06181-.56.5695-1.488.5695-2.048 0zm9.941 2.0076 1.313-.216v2.415l-1.313.2447c-1.129.2182-1.854.8083-1.854 2.115v5.7316l-2.279-.4713v-5.6107c0-2.7961 1.627-3.6278 4.133-4.2083zm-13.755 10.3132-2.279-.4711v-5.9702c0-1.0212-.734-1.7476-1.816-1.7476-1.081 0-1.815.7264-1.815 1.7476v6.4413l-2.279-.4711v-5.9702c0-1.0212-.734-1.7476-1.816-1.7476-1.101 0-1.835.7264-1.835 1.7476v6.4413l-2.279-.4711v-9.3675l2.279-.4517v1.0606c.637-.7856 1.603-1.2764 2.704-1.2764.773 0 1.719.2943 2.511 1.0603.773-.766 1.622-1.0408 2.704-1.0408 1.603 0 3.921 1.0997 3.921 4.1436zm21.995.0661c2.853 0 5.189-2.3753 5.189-5.2958 0-2.9012-2.336-5.2764-5.189-5.2764-2.873 0-5.209 2.3752-5.209 5.2764 0 2.9205 2.336 5.2958 5.209 5.2958zm-3.026-5.2958c0 1.7133 1.359 3.0956 3.026 3.0956 1.665 0 3.006-1.3823 3.006-3.0956 0-1.694-1.341-3.0569-3.006-3.0569-1.667 0-3.026 1.3629-3.026 3.0569zm-15.29 4.7586 2.279.5372v-10.4425l-2.279.4711zm60.652-7.931c1.333 0 2.279.6896 2.408 1.8017h-1.307c-.112-.4913-.482-.6982-1.119-.6982-.542 0-1.006.2155-1.006.6982 0 .4052.344.5517.766.6294l1.143.2068c.964.1724 1.669.6982 1.669 1.8017 0 1.0258-.8 1.9396-2.468 1.9396-1.549 0-2.504-.7758-2.624-1.9913h1.308c.111.681.705.8879 1.367.8879.671 0 1.127-.2846 1.127-.776 0-.4826-.327-.6809-.834-.7671l-1.17-.2069c-1.015-.1811-1.574-.7586-1.574-1.6809 0-1.0173.826-1.8449 2.314-1.8449zm-23.168.1123v4.9826h3.251v1.1724h-4.533v-6.155zm11.032 6.155h-1.299l-.498-1.6637h-2.34l-.499 1.6637h-1.264l1.952-6.155h1.987zm-2.787-4.9223h-.378l-.645 2.138h1.668zm9.281 1.8104v-.1725c.396-.1982.645-.681.645-1.2413 0-.8793-.662-1.6293-2.021-1.6293h-2.882v6.155h2.959c1.454 0 2.116-.7586 2.116-1.7844 0-.6121-.378-1.1466-.817-1.3275zm-1.531-.6035h-1.445v-1.3707h1.436c.577 0 .869.2242.869.681 0 .4656-.284.6897-.86.6897zm.043 2.6207h-1.488v-1.5431h1.505c.654 0 .972.2672.972.7844s-.353.7587-.989.7587zm-24.32-8.1404v11h1v-11z" fill="#000" fill-rule="evenodd"/></svg>

<svg width="216" height="32" viewBox="0 0 216 32" fill="none" xmlns="http://www.w3.org/2000/svg">
<path fill-rule="evenodd" clip-rule="evenodd" d="M12.8342 32H19.2514C26.3394 32 32.0856 26.2691 32.0856 19.2V12.8C32.0856 5.73088 26.3394 0 19.2514 0H12.8342C5.74621 0 0 5.73088 0 12.8V19.2C0 26.2691 5.74621 32 12.8342 32ZM22.0113 10.8801C21.882 10.8801 21.7491 10.8942 21.6147 10.9239C20.9781 11.0647 20.4641 11.5774 20.3229 12.2126C20.0152 13.5963 21.3715 14.7841 22.7807 14.17C23.1349 14.0158 23.423 13.7284 23.5774 13.3755C24.1334 12.1063 23.2161 10.8801 22.0113 10.8801ZM11.2305 11.1358H8.66366C8.48623 11.1358 8.3428 11.2794 8.3428 11.4558V16.1665C8.3428 20.3092 11.7686 23.6801 15.9792 23.6801C20.0778 23.6801 23.433 20.4862 23.6085 16.4951C23.6162 16.3153 23.4667 16.1665 23.286 16.1665H20.7246C20.5559 16.1665 20.4086 16.2932 20.3967 16.4612C20.2408 18.7028 18.3189 20.4801 15.9792 20.4801C13.5375 20.4801 11.5514 18.5451 11.5514 16.1665V11.4558C11.5514 11.2794 11.4076 11.1358 11.2305 11.1358ZM97.3047 10.2501C97.5065 10.2014 97.7009 10.3541 97.7009 10.5611V24.9608C97.7009 25.1378 97.5572 25.2808 97.3801 25.2808H94.0111C93.834 25.2808 93.6902 25.1378 93.6902 24.9608V11.372C93.6902 11.2242 93.7916 11.0958 93.9357 11.061L97.3047 10.2501ZM119.605 1.92947C119.807 1.88179 120.001 2.03443 120.001 2.24115V24.9608C120.001 25.1375 119.857 25.2808 119.68 25.2808H117.501C117.407 25.2808 117.318 25.2402 117.257 25.1695L116.495 24.2837C115.247 25.1151 113.749 25.6008 112.14 25.6008C107.514 25.6008 103.81 21.597 104.327 16.8824C104.714 13.3493 107.517 10.4744 111.048 9.99507C112.852 9.75027 114.559 10.124 115.99 10.9295V3.03923C115.99 2.89107 116.092 2.76211 116.236 2.72819L119.605 1.92947ZM115.958 18.2619C116.278 15.7538 114.153 13.6344 111.638 13.9528C109.924 14.1698 108.539 15.5503 108.321 17.26C108.001 19.7682 110.126 21.8875 112.641 21.5691C114.355 21.3522 115.74 19.9717 115.958 18.2619ZM101.551 9.92086C102.836 9.92086 103.877 10.9596 103.877 12.2409C103.877 13.5221 102.836 14.5609 101.551 14.5609C100.266 14.5609 99.225 13.5221 99.225 12.2409C99.225 10.9596 100.266 9.92086 101.551 9.92086ZM59.0377 10.2409C59.2149 10.2409 59.3586 10.3842 59.3586 10.5609V24.9609C59.3586 25.1378 59.2149 25.2809 59.0377 25.2809H55.6688C55.4916 25.2809 55.3479 25.1378 55.3479 24.9609V10.5609C55.3479 10.3842 55.4916 10.2409 55.6688 10.2409H59.0377ZM57.3532 1.92086C58.638 1.92086 59.6795 2.95958 59.6795 4.24086C59.6795 5.52214 58.638 6.56086 57.3532 6.56086C56.0685 6.56086 55.027 5.52214 55.027 4.24086C55.027 2.95958 56.0685 1.92086 57.3532 1.92086ZM74.6795 10.2409C74.8566 10.2409 75.0003 10.3842 75.0003 10.5609V13.621C75.0003 13.71 74.9628 13.7954 74.897 13.8559L66.6581 21.4409H73.7872C73.9344 21.4409 74.0628 21.541 74.0984 21.6834L74.9005 24.8834C74.9512 25.0853 74.7982 25.2809 74.5893 25.2809H73.165H61.5244C61.3473 25.2809 61.2035 25.1378 61.2035 24.9609V21.901C61.2035 21.8117 61.2411 21.7266 61.3068 21.6658L69.2249 14.0809H62.4167C62.2694 14.0809 62.1411 13.981 62.1054 13.8386L61.3033 10.6386C61.2526 10.4367 61.4057 10.2409 61.6145 10.2409H63.5393H74.6795ZM91.3688 10.2501C91.5709 10.2015 91.7651 10.3541 91.7651 10.5612V24.9609C91.7651 25.1378 91.6213 25.2809 91.4442 25.2809H89.2669C89.1725 25.2809 89.0827 25.2396 89.0217 25.1676L88.2684 24.278C87.0189 25.1129 85.5177 25.6009 83.9041 25.6009C79.5693 25.6009 76.0431 22.0837 76.0431 17.7609C76.0431 13.438 79.5693 9.92086 83.9041 9.92086C85.3993 9.92086 86.7985 10.3397 87.9895 11.0655C87.9915 11.065 87.9933 11.0641 87.995 11.0631L87.9973 11.062L87.9998 11.061L91.3688 10.2501ZM83.9041 21.6009C86.0272 21.6009 87.7543 19.8783 87.7543 17.7609C87.7543 15.6434 86.0272 13.9209 83.9041 13.9209C81.781 13.9209 80.0538 15.6434 80.0538 17.7609C80.0538 19.8783 81.781 21.6009 83.9041 21.6009ZM53.1019 10.2409C53.279 10.2409 53.4228 10.3842 53.4228 10.5609V17.4409C53.4228 21.9404 49.7162 25.6009 45.1607 25.6009C40.6052 25.6009 36.8987 21.9404 36.8987 17.4409V10.5609C36.8987 10.3842 37.0424 10.2409 37.2195 10.2409H40.5885C40.7656 10.2409 40.9094 10.3842 40.9094 10.5609V17.4409C40.9094 19.7346 42.8165 21.6009 45.1607 21.6009C47.5049 21.6009 49.4121 19.7346 49.4121 17.4409V10.5609C49.4121 10.3842 49.5558 10.2409 49.7329 10.2409H53.1019ZM152.933 10.0491C152.373 9.47985 152.373 8.53725 152.933 7.98729C153.493 7.41765 154.421 7.41765 154.981 7.98729C155.541 8.53725 155.541 9.47985 154.981 10.0491C154.421 10.6186 153.493 10.6186 152.933 10.0491ZM162.874 12.0567L164.187 11.8407V14.2557L162.874 14.5004C161.745 14.7186 161.02 15.3087 161.02 16.6154V22.347L158.741 21.8757V16.265C158.741 13.4689 160.368 12.6372 162.874 12.0567ZM149.119 22.3699L146.84 21.8988V15.9286C146.84 14.9074 146.106 14.181 145.024 14.181C143.943 14.181 143.209 14.9074 143.209 15.9286V22.3699L140.93 21.8988V15.9286C140.93 14.9074 140.196 14.181 139.114 14.181C138.013 14.181 137.279 14.9074 137.279 15.9286V22.3699L135 21.8988V12.5313L137.279 12.0796V13.1402C137.916 12.3546 138.882 11.8638 139.983 11.8638C140.756 11.8638 141.702 12.1581 142.494 12.9241C143.267 12.1581 144.116 11.8833 145.198 11.8833C146.801 11.8833 149.119 12.983 149.119 16.0269V22.3699ZM171.114 22.436C173.967 22.436 176.303 20.0607 176.303 17.1402C176.303 14.239 173.967 11.8638 171.114 11.8638C168.241 11.8638 165.905 14.239 165.905 17.1402C165.905 20.0607 168.241 22.436 171.114 22.436ZM168.088 17.1402C168.088 18.8535 169.447 20.2358 171.114 20.2358C172.779 20.2358 174.12 18.8535 174.12 17.1402C174.12 15.4462 172.779 14.0833 171.114 14.0833C169.447 14.0833 168.088 15.4462 168.088 17.1402ZM152.798 21.8988L155.077 22.436V11.9935L152.798 12.4646V21.8988ZM213.45 13.9678C214.783 13.9678 215.729 14.6574 215.858 15.7695H214.551C214.439 15.2782 214.069 15.0713 213.432 15.0713C212.89 15.0713 212.426 15.2868 212.426 15.7695C212.426 16.1747 212.77 16.3212 213.192 16.3989L214.335 16.6057C215.299 16.7781 216.004 17.3039 216.004 18.4074C216.004 19.4332 215.204 20.347 213.536 20.347C211.987 20.347 211.032 19.5712 210.912 18.3557H212.22C212.331 19.0367 212.925 19.2436 213.587 19.2436C214.258 19.2436 214.714 18.959 214.714 18.4676C214.714 17.985 214.387 17.7867 213.88 17.7005L212.71 17.4936C211.695 17.3125 211.136 16.735 211.136 15.8127C211.136 14.7954 211.962 13.9678 213.45 13.9678ZM190.282 14.0801V19.0627H193.533V20.2351H189V14.0801H190.282ZM201.314 20.2351H200.015L199.517 18.5714H197.177L196.678 20.2351H195.414L197.366 14.0801H199.353L201.314 20.2351ZM198.527 15.3128H198.149L197.504 17.4508H199.172L198.527 15.3128ZM207.808 17.1232V16.9507C208.204 16.7525 208.453 16.2697 208.453 15.7094C208.453 14.8301 207.791 14.0801 206.432 14.0801H203.55V20.2351H206.509C207.963 20.2351 208.625 19.4765 208.625 18.4507C208.625 17.8386 208.247 17.3041 207.808 17.1232ZM206.277 16.5197H204.832V15.149H206.268C206.845 15.149 207.137 15.3732 207.137 15.83C207.137 16.2956 206.853 16.5197 206.277 16.5197ZM206.32 19.1404H204.832V17.5973H206.337C206.991 17.5973 207.309 17.8645 207.309 18.3817C207.309 18.8989 206.956 19.1404 206.32 19.1404ZM182 11V22H183V11H182Z" fill="white"/>
</svg>
